X:1
T:Greenwell, 88.87
T:Greenwell, 88.87
T:Carey Bonner (1859-1938)
T:Public Domain Courtesy of the Cyber Hymnal™
C:Carey Bonner (1859-1938)
Z:Public Domain
Z:Courtesy of the Cyber Hymnal™
%%score ( 1 2 ) ( 3 4 )
L:1/8
Q:1/4=107
M:4/4
K:G
V:1 treble 
V:2 treble 
V:3 bass 
V:4 bass 
V:1
 [DB]2 | [DG]2 [^CE]2 D2 [DB]2 | [DG]2 ([DF][CE]) [B,D]2 [DG]2 | [DF]2 [DG]2 [Dc]2 [DB]2 | %4
 [^CB]2 (AE) [DF]2 D2 | [DG]2 [DA]2 B3 z G | [GB]2 [Gc]2 [Gd]2 [Ge]2 | [Gd]2 (GF) [EG]2 [Ec]2 | %8
 [FA]4 G2 |] %9
V:2
 x2 | x4 D2 x2 | x8 | x8 | x2 ^C2 x D2 x | x4 D2 D2 x | x8 | x2 GF x4 | x4 G2 |] %9
V:3
 G,2 | [G,B,]2 [G,=A,]2 [G,B,]2 [G,,G,]2 | [B,,G,]2 G,2 G,2 [B,,G,]2 | %3
 [C,A,]2 [B,,G,]2 [A,,F,]2 [G,,G,]2 | [A,,E,]2 (E,A,) [D,A,]2 [C,F,]2 | %5
 [B,,G,]2 [D,F,]2 G,2 [B,D]2 x | (DG,) [E,A,]2 [D,B,]2 [=C,=A,]2 | [D,B,]2 B,2 [C,C]2 [A,,E]2 | %8
 [D,C]4 [G,B,]2 |] %9
V:4
 G,2 | x8 | x2 (C,E,) G,2 x2 | x8 | x2 A,,2 x4 | x4 G,2 x3 | G,2 x6 | x2 (E,D,) x4 | x6 |] %9

